X:110
M:C
L:1/8
Q:1/4=100
K:F
f>d c<A G2 F:|
c/d/4e/4|f>ga>d dcc c/d/4e/4|f>g ag f2 zc/d/4e/4|f>g a>d c<A a>g|
f>dc>A G2 F c/d/4e/4|f>g a>d dcc c/d/4e/4|f>g a>g f2 zc/d/4e/4|
f>g a>d c<A a>g|f>d c<A G2 F||

